src/assets/icons/ic-visibility-off.svg

<!--
  - Copyright (c) 2024. Devtron Inc.
  -
  - Licensed under the Apache License, Version 2.0 (the "License");
  - you may not use this file except in compliance with the License.
  - You may obtain a copy of the License at
  -
  -     http://www.apache.org/licenses/LICENSE-2.0
  -
  - Unless required by applicable law or agreed to in writing, software
  - distributed under the License is distributed on an "AS IS" BASIS,
  - WITHOUT WARRANTIES OR CONDITIONS OF ANY KIND, either express or implied.
  - See the License for the specific language governing permissions and
  - limitations under the License.
  -->

<svg width="24" height="24" viewBox="0 0 24 24" fill="none" xmlns="http://www.w3.org/2000/svg">
<path d="M4.5 3.75012L19.5 20.2501M14.5225 14.7749C13.7866 15.4438 12.8151 15.793 11.8217 15.7457C10.8283 15.6983 9.89443 15.2583 9.22545 14.5224C8.55647 13.7866 8.2072 12.8151 8.25446 11.8217C8.30171 10.8283 8.74164 9.89437 9.47746 9.22532M6.93698 6.43077C3.11486 8.36629 1.5 12.0001 1.5 12.0001C1.5 12.0001 4.5 18.7494 12 18.7494C13.7572 18.7634 15.4926 18.3586 17.0623 17.5686M19.5571 15.8532C21.6011 14.0225 22.5 12.0001 22.5 12.0001C22.5 12.0001 19.5 5.24939 12 5.24939C11.3504 5.24833 10.7019 5.30114 10.061 5.40728M12.7057 8.31648C13.5027 8.46953 14.2287 8.87687 14.7746 9.47742C15.3205 10.078 15.657 10.8393 15.7336 11.6473" stroke="#596168" stroke-width="1.5" stroke-linecap="round" stroke-linejoin="round"/>
</svg>

<!--
  - Copyright (c) 2024. Devtron Inc.
  -
  - Licensed under the Apache License, Version 2.0 (the "License");
  - you may not use this file except in compliance with the License.
  - You may obtain a copy of the License at
  -
  -     http://www.apache.org/licenses/LICENSE-2.0
  -
  - Unless required by applicable law or agreed to in writing, software
  - distributed under the License is distributed on an "AS IS" BASIS,
  - WITHOUT WARRANTIES OR CONDITIONS OF ANY KIND, either express or implied.
  - See the License for the specific language governing permissions and
  - limitations under the License.
  -->

<svg xmlns="http://www.w3.org/2000/svg" width="24" height="24" fill="none" viewBox="0 0 24 24">
  <path stroke="#3B444C" stroke-linecap="round" stroke-linejoin="round" stroke-width="1.5" d="m4.5 3.75 15 16.5m-4.977-5.475a3.75 3.75 0 0 1-5.046-5.55m-2.54-2.794C3.115 8.366 1.5 12 1.5 12s3 6.75 10.5 6.75a11.088 11.088 0 0 0 5.062-1.181m2.495-1.716C21.601 14.023 22.5 12 22.5 12s-3-6.75-10.5-6.75a11.75 11.75 0 0 0-1.939.157m2.645 2.91a3.752 3.752 0 0 1 3.028 3.33" vector-effect="non-scaling-stroke"/>
</svg>
